src/assets/icons/indian-rupee.svg

<svg width="14" height="14" viewBox="0 0 14 14" fill="none" xmlns="http://www.w3.org/2000/svg">
<g id="indian-rupee">
<path id="Vector" fill-rule="evenodd" clip-rule="evenodd" d="M1.96004 0.56C1.96004 0.25072 2.21076 0 2.52004 0H11.48C11.7893 0 12.04 0.25072 12.04 0.56C12.04 0.869279 11.7893 1.12 11.48 1.12H7.8073C7.86277 1.17247 7.91652 1.22646 7.96853 1.28188C8.54062 1.89148 8.8829 2.65403 9.00383 3.44296H11.48C11.7893 3.44296 12.04 3.69368 12.04 4.00296C12.04 4.31224 11.7893 4.56296 11.48 4.56296H9.02827C8.93534 5.41761 8.58563 6.25314 7.96853 6.91071C7.23183 7.69572 6.14622 8.19259 4.76004 8.19259H3.96159L9.24475 13.0269C9.47292 13.2356 9.48864 13.5899 9.27985 13.818C9.07107 14.0462 8.71684 14.0619 8.48867 13.8531L2.14201 8.04573C1.97157 7.88977 1.91439 7.64516 1.99805 7.42981C2.0817 7.21446 2.28902 7.07259 2.52004 7.07259H4.76004C5.86288 7.07259 6.64403 6.68538 7.15184 6.14428C7.56039 5.70894 7.81249 5.15195 7.89941 4.56296H2.52004C2.21076 4.56296 1.96004 4.31224 1.96004 4.00296C1.96004 3.69368 2.21076 3.44296 2.52004 3.44296H7.8661C7.75712 2.92358 7.51695 2.43736 7.15184 2.04831C6.64403 1.50721 5.86288 1.12 4.76004 1.12H2.52004C2.21076 1.12 1.96004 0.869279 1.96004 0.56Z" fill="black"/>
</g>
</svg>

<svg xmlns="http://www.w3.org/2000/svg" fill="none" viewBox="0 0 14 14"><path fill="#000" fill-rule="evenodd" d="M1.96.56c0-.31.25-.56.56-.56h8.96a.56.56 0 1 1 0 1.12H7.807q.084.078.162.162c.572.61.914 1.372 1.035 2.161h2.476a.56.56 0 1 1 0 1.12H9.028a4.06 4.06 0 0 1-1.06 2.348c-.736.785-1.822 1.282-3.208 1.282h-.798l5.283 4.834a.56.56 0 1 1-.756.826L2.142 8.046a.56.56 0 0 1 .378-.973h2.24c1.103 0 1.884-.388 2.392-.929.408-.435.66-.992.747-1.581H2.52a.56.56 0 1 1 0-1.12h5.346a2.9 2.9 0 0 0-.714-1.395c-.508-.54-1.29-.928-2.392-.928H2.52a.56.56 0 0 1-.56-.56" clip-rule="evenodd"/></svg>
